X:2
T:Jer the Rigger
T:Thadelo's #2
M:2/4
L:1/8
R:Polka
N:Normally played as a polka
Z:B.Black
K:Amix
e A e A|e/2f/2e/2d/2 cA| d>c d/2e/2f/2g/2| a e f e|
(3e/2f/2e/2 A e A| e/2f/2e/2d/2 (3c/2d/2c/2 A| d f/2d/2 c e/2c/2| B/2A/2B/2c/2 A2 :|
ae f/2e/2c/2e/2| ae f/2e/2c/2e/2| d>>c d/2e/2f/2g/2| ae (3 f/2g/2f/2 e|
ae f/2e/2c/2e/2| ae f/2e/2c/2e/2| d f/2d/2 c e/2c/2| B/2A/2B/2c/2 A2 :|
